X: 22023
T: Kiwi
R: reel
M: 4/4
K: Amajor
EG|A/A/A cB AecA|ECEF AecA|B2 BA FDFA|Bdfb gefg|
a2 af efec|afec fecA|FBdc Bbge|dBGE A2:|
F2|G2 GF EFGF|EBGE dBGE|c2 cB ABcB|AecA ecAe|
^d2 dc Bcdc|Bf^dB afdB|geaf bgaf|gef^d e2:|

